build/Karasa-Jaga/scalable/apps/unity-tweak-tool-wm-symbolic.svg

<svg height="16" width="16" xmlns="http://www.w3.org/2000/svg"><g fill="#777" transform="translate(0 -48)"><path d="m4 4c-1 0-1 1-1 1v7h10v-7c0-1-1-1-1-1zm.15625 2h7.6875c.079825 0 .15625.072434.15625.15625v4.6875c0 .083816-.076425.15625-.15625.15625h-7.6875c-.0798248 0-.15625-.072434-.15625-.15625v-4.6875c0-.083816.0764252-.15625.15625-.15625z" transform="translate(0 48)"/><path d="m0 56 2-2v4z"/><path d="m16 56-2-2v4z"/><path d="m8 49-2 2h4z"/><path d="m8 63-2-2h4z"/></g></svg>

<?xml version="1.0" encoding="UTF-8" standalone="no"?>
<!-- Created with Inkscape (http://www.inkscape.org/) -->

<svg
   xmlns:dc="http://purl.org/dc/elements/1.1/"
   xmlns:cc="http://creativecommons.org/ns#"
   xmlns:rdf="http://www.w3.org/1999/02/22-rdf-syntax-ns#"
   xmlns:svg="http://www.w3.org/2000/svg"
   xmlns="http://www.w3.org/2000/svg"
   xmlns:sodipodi="http://sodipodi.sourceforge.net/DTD/sodipodi-0.dtd"
   xmlns:inkscape="http://www.inkscape.org/namespaces/inkscape"
   width="16"
   height="16"
   id="svg2985"
   version="1.1"
   inkscape:version="0.48.4 r9939"
   sodipodi:docname="unity-tweak-tool-wm-symbolic.svg">
  <defs
     id="defs2987" />
  <sodipodi:namedview
     id="base"
     pagecolor="#ffffff"
     bordercolor="#666666"
     borderopacity="1.0"
     inkscape:pageopacity="0"
     inkscape:pageshadow="2"
     inkscape:zoom="1"
     inkscape:cx="3.9429377"
     inkscape:cy="8.5848926"
     inkscape:current-layer="layer1"
     showgrid="false"
     inkscape:document-units="px"
     inkscape:grid-bbox="true"
     inkscape:window-width="1301"
     inkscape:window-height="744"
     inkscape:window-x="65"
     inkscape:window-y="24"
     inkscape:window-maximized="1"
     inkscape:snap-bbox="true">
    <inkscape:grid
       type="xygrid"
       id="grid2982"
       empspacing="5"
       visible="true"
       enabled="true"
       snapvisiblegridlinesonly="true" />
  </sodipodi:namedview>
  <metadata
     id="metadata2990">
    <rdf:RDF>
      <cc:Work
         rdf:about="">
        <dc:format>image/svg+xml</dc:format>
        <dc:type
           rdf:resource="http://purl.org/dc/dcmitype/StillImage" />
        <dc:title />
      </cc:Work>
    </rdf:RDF>
  </metadata>
  <g
     id="layer1"
     inkscape:label="Layer 1"
     inkscape:groupmode="layer"
     transform="translate(0,-48)">
    <path
       style="font-size:medium;font-style:normal;font-variant:normal;font-weight:normal;font-stretch:normal;text-indent:0;text-align:start;text-decoration:none;line-height:normal;letter-spacing:normal;word-spacing:normal;text-transform:none;direction:ltr;block-progression:tb;writing-mode:lr-tb;text-anchor:start;baseline-shift:baseline;color:#000000;fill:#777777;fill-opacity:1;stroke:none;stroke-width:1.99982572;marker:none;visibility:visible;display:inline;overflow:visible;enable-background:accumulate;font-family:Sans;-inkscape-font-specification:Sans"
       d="M 4 4 C 3 4 3 5 3 5 L 3 12 L 13 12 L 13 5 C 13 4 12 4 12 4 L 4 4 z M 4.15625 6 L 11.84375 6 C 11.923575 6 12 6.072434 12 6.15625 L 12 10.84375 C 12 10.927566 11.923575 11 11.84375 11 L 4.15625 11 C 4.0764252 11 4 10.927566 4 10.84375 L 4 6.15625 C 4 6.072434 4.0764252 6 4.15625 6 z "
       transform="translate(0,48)"
       id="rect2984" />
    <path
       style="fill:#777777;fill-opacity:1;stroke:none"
       d="m 0,56 2,-2 0,4 z"
       id="path3773"
       inkscape:connector-curvature="0" />
    <path
       inkscape:connector-curvature="0"
       id="path3775"
       d="m 16,56 -2,-2 0,4 z"
       style="fill:#777777;fill-opacity:1;stroke:none" />
    <path
       style="fill:#777777;fill-opacity:1;stroke:none"
       d="m 8,49 -2,2 4,0 z"
       id="path3777"
       inkscape:connector-curvature="0" />
    <path
       inkscape:connector-curvature="0"
       id="path3779"
       d="m 8,63 -2,-2 4,0 z"
       style="fill:#777777;fill-opacity:1;stroke:none" />
  </g>
</svg>
